X:18644
T:Wheena Burn, The
R:Reel
O:Shetland
M:4/4
C:Fredemann Stickle
K:Em
ge|\
dBG2 dAdB|dGGd gdBG|A2A2 BcBA|B2e2 e2::\
ef|\
g2g2 gaba|gab^c' b2ag|fga2 abag|fga2bagf|\
e2ef g2ga|b2b2 B3A|BAGA BAGF|E2e2 e2:|


